brandFactory_export/3.Masa/Web _3Masa.svg

<?xml version="1.0" encoding="UTF-8"?>
<svg width="24px" height="24px" viewBox="0 0 24 24" version="1.1" xmlns="http://www.w3.org/2000/svg" xmlns:xlink="http://www.w3.org/1999/xlink">
    <title>3.Masa/Web _3Masa</title>
    <g id="Symbols" stroke="none" stroke-width="1" fill="none" fill-rule="evenodd">
        <g id="3.Masa/Web-_3Masa" fill="#5CB615" fill-rule="nonzero">
            <path d="M5.58655462,10.0285714 L8.8605042,12.8890756 C9.01176471,13.0201681 9.09579832,13.2084034 9.09915966,13.4033613 C9.09915966,13.6016807 9.01512605,13.7865546 8.86722689,13.9176471 L5.59327731,16.8319328 C5.45882353,16.9529412 5.28403361,17.0201681 5.10252101,17.0168067 C4.90084034,17.0168067 4.7092437,16.9361345 4.57142857,16.7915966 C4.3092437,16.5226891 4.31596639,16.092437 4.58487395,15.8302521 C4.59495798,15.8235294 4.60168067,15.8134454 4.61176471,15.8067227 L7.30420168,13.410084 L4.61848739,11.0605042 C4.33277311,10.8151261 4.30252101,10.3882353 4.54453782,10.102521 C4.5512605,10.092437 4.56134454,10.0857143 4.56806723,10.0756303 C4.83697479,9.78991597 5.28739496,9.7697479 5.58655462,10.0285714 L5.58655462,10.0285714 Z M18.4033613,12.7344538 C18.8033613,12.7344538 19.1294118,13.0470588 19.1294118,13.4302521 C19.1294118,13.8134454 18.8033613,14.1260504 18.4067227,14.1260504 L10.6453782,14.1260504 C10.2521008,14.1327731 9.92941176,13.8201681 9.91932773,13.4302521 C9.91932773,13.0470588 10.2453782,12.7310924 10.6453782,12.7310924 L18.4033613,12.7344538 Z M21.9092437,19.3529412 C22.0571429,19.3529412 22.1781513,19.2386555 22.1781513,19.0941176 L22.1781513,7.49747899 L1.44537815,7.49747899 L1.44537815,19.0941176 C1.44537815,19.2352941 1.56638655,19.3529412 1.71428571,19.3529412 L21.9092437,19.3529412 Z M3.82521008,5.6789916 C3.81848739,5.31596639 3.51932773,5.02689076 3.15630252,5.03361345 L3.15294118,5.03361345 C2.78991597,5.02689076 2.4907563,5.31596639 2.48403361,5.6789916 C2.48403361,6.03529412 2.78319328,6.32436975 3.15294118,6.32436975 C3.51932773,6.33109244 3.81848739,6.04201681 3.82521008,5.6789916 Z M5.83865546,5.6789916 C5.83193277,5.31596639 5.53277311,5.02689076 5.1697479,5.03361345 L5.16638655,5.03361345 C4.80336134,5.02689076 4.50420168,5.31596639 4.49747899,5.6789916 C4.49747899,6.03529412 4.79663866,6.32436975 5.16638655,6.32436975 C5.53277311,6.33109244 5.83193277,6.04201681 5.83865546,5.6789916 Z M7.85210084,5.6789916 C7.84537815,5.31596639 7.54621849,5.02689076 7.18319328,5.03361345 L7.17983193,5.03361345 C6.81680672,5.02689076 6.51764706,5.31596639 6.51092437,5.6789916 C6.51092437,6.03529412 6.81008403,6.32436975 7.17983193,6.32436975 C7.54621849,6.33109244 7.84537815,6.04201681 7.85210084,5.6789916 Z M21.9092437,3.0302521 C22.8537815,3.0302521 23.6235294,3.77310924 23.6235294,4.68403361 L23.6235294,19.0941176 C23.6235294,20.005042 22.8537815,20.7478992 21.9092437,20.7478992 L1.71428571,20.7478992 C0.766386555,20.7478992 0,20.0084034 0,19.097479 L0,4.68403361 C0,3.77310924 0.766386555,3.0302521 1.71428571,3.0302521 L21.9092437,3.0302521 Z" id="Web-_3Masa"></path>
        </g>
    </g>
</svg>

<svg width="24" height="24" viewBox="0 0 24 24" xmlns="http://www.w3.org/2000/svg"><path d="M5.587 10.029l3.274 2.86c.15.131.235.32.238.514a.684.684 0 01-.232.515l-3.274 2.914a.714.714 0 01-.49.185.732.732 0 01-.532-.225.68.68 0 01.014-.962c.01-.006.017-.017.027-.023l2.692-2.397-2.686-2.35a.68.68 0 01-.073-.957c.006-.01.016-.017.023-.027a.738.738 0 011.019-.047zm12.816 2.705c.4 0 .726.313.726.696 0 .383-.326.696-.722.696h-7.762a.715.715 0 01-.726-.696c0-.383.326-.699.726-.699l7.758.003zm3.506 6.619a.263.263 0 00.27-.259V7.497H1.444v11.597c0 .141.121.259.27.259h20.194zM3.825 5.679a.657.657 0 00-.669-.645h-.003a.657.657 0 00-.669.645c0 .356.3.645.669.645a.658.658 0 00.672-.645zm2.014 0a.657.657 0 00-.67-.645h-.003a.657.657 0 00-.669.645c0 .356.3.645.67.645a.658.658 0 00.672-.645zm2.013 0a.657.657 0 00-.669-.645H7.18a.657.657 0 00-.67.645c0 .356.3.645.67.645a.658.658 0 00.672-.645zM21.91 3.03c.945 0 1.715.743 1.715 1.654v14.41c0 .911-.77 1.654-1.715 1.654H1.714c-.948 0-1.714-.74-1.714-1.65V4.683c0-.91.766-1.654 1.714-1.654H21.91z" fill="#5CB615" fill-rule="nonzero"/></svg>
